!!!SOCIAL_FUNCTION:	miscellaneous dance songs
!!!PDT:	1932
!!!OTL: No_113_Song_of_the_Beggars'_Dance.krn
!!!REG: Wisconsin
!!!LANG: Non-Tone
!!!LING_GROUP: Algonquin
**kern
*staff1
=1-
*clefF4
*k[f#]
*M3/4
2r
8A\L
8G\J
=2
4A\
8A\L
8A\J
8A\
8r
=3
4d\
8c\L
8d\J
8A\L
8A\J
=4||
*M2/4
4G\
8E\L
8D\J
=5||
*M3/4
4G\
8G\L
8G\J
8G\
8r
=6||
*M2/4
8G\L
8E\J
8D\L
8E\J
=7
8G\L
8E\J
8D\L
8E\J
=8
4D\
8D\L
8D\J
=9
8D\
8r
8A\L
8G\J
=10||
*M3/4
4A\
8A\L
8A\J
8A\
8r
=11||
*M2/4
4d\
8c\L
8d\J
=12
8A\L
8d\J
8G\L
8G\J
=13
4G\
8F#\L
8D\J
=14||
*M3/4
4G\
8G\L
8G\J
8G\
8r
=15||
*M2/4
8G\L
8E\J
8D\L
8E\J
=16
8G\L
8E\J
8D\L
8E\J
=17||
*M3/4
4D\
8D\L
8D\J
8D\
8r
==
*-
